!!!!SEGMENT: pl-gd--ee-2628--005-020_stabile-annibale--il-primo-libro-de-madrigali-a-cinque-voci-qual-vaga-pastorella.krn
!!!cenid: 15xx:1065
!!!COM: Stabile, Annibale
!!!COM-rismid: pe30009662
!!!CDT:
!!!CNT:
!!!GTL: Il primo libro de madrigali a cinque voci
!!!OTL: Qual vaga pastorella
!!!OMV: 020
!!!PDT: 1586
!!!AGN:
!!!SMS-siglum: PL-GD
!!!SMS-shelfmark: Ee 2628
!!!SMS-variant:
!!!SMS-altvar:
!!!SMS-shelfwork: 005-020 G
!!!NIFC-rismid: 990060531
!!!URL-scan: https://repozytorium.nifc.pl/islandora/object/pl-gd%3A66139/datastream/PDF/view
!!!ONB-nifc: UWAGA: Canto: s. 78-89, Tenore: s. 233-245, Basso: s. 390-401, Quinto: s. 712-723. Dla głosu Alto proszę skorzystać z https://pbc.gda.pl/dlibra/doccontent?id=79410, str. 25-48. Uwaga: utwory podzielone wg spisu treści dostępnych na końcu ksiąg – proszę sprawdzać sąsiednie tytuły. Głos Quinto proszę umieszczać wg ambitusu (może się różnić w zależności od utworu).
!!!AIN: 1 alto 1 bass 1 soprn 2 tenor
!!!key: a:aeo
**kern	**text	**kern	**text	**kern	**text	**kern	**text	**kern	**text
*part5	*part5	*part4	*part4	*part3	*part3	*part2	*part2	*part1	*part1
*staff5	*staff5	*staff4	*staff4	*staff3	*staff3	*staff2	*staff2	*staff1	*staff1
*I"BASSO	*	*I"TENORE	*	*I"QVINTO	*	*I"ALT	*	*I"CANTO	*
*I'B	*	*I'T	*	*I'V 5	*	*I'A	*	*I'S	*
*Ibass	*	*Itenor	*	*Itenor	*	*Ialto	*	*Isoprn	*
*ICvox	*	*ICvox	*	*ICvox	*	*ICvox	*	*ICvox	*
*clefF3	*	*clefC3	*	*clefC3	*	*clefC2	*	*clefG2	*
*k[]	*	*k[]	*	*k[]	*	*k[]	*	*k[]	*
*a:aeo	*	*a:aeo	*	*a:aeo	*	*a:aeo	*	*a:aeo	*
*M2/1	*	*M2/1	*	*M2/1	*	*M2/1	*	*M2/1	*
*met(C)	*	*met(C)	*	*met(C)	*	*met(C)	*	*met(C)	*
=1-	=1-	=1-	=1-	=1-	=1-	=1-	=1-	=1-	=1-
!LO:TX:a:i:t=Seconda parte.	!	!LO:TX:a:i:t=Seconda parte.	!	!	!	!LO:TX:a:i:t=Seconda parte.	!	!LO:TX:a:i:t=Seconda parte.	!
00r	.	00r	.	2A/	QVal	1r	.	0r	.
.	.	.	.	4.c/	va-	.	.	.	.
.	.	.	.	8d\	.	.	.	.	.
.	.	.	.	4e\	.	2r	.	.	.
.	.	.	.	4e\	ga	.	.	.	.
.	.	.	.	4c#X/	paſ-	2e/	QVal	.	.
.	.	.	.	4c#/	-to-	.	.	.	.
=2-	=2-	=2-	=2-	=2-	=2-	=2-	=2-	=2-	=2-
.	.	.	.	2d\	-rel-	4.f\	va-	2a/	QVal
.	.	.	.	.	.	8g\	.	.	.
.	.	.	.	2A/	-la	4a\	.	4.cc\	va-
.	.	.	.	.	.	4a\	-ga	.	.
.	.	.	.	.	.	.	.	8dd\	.
.	.	.	.	4r	.	2.cc\	pa-	4ee\	.
*	*	*	*	*	*ij	*	*	*	*
.	.	.	.	4a\	QVal	.	.	4ee\	-ga
.	.	.	.	4a\	va-	.	.	4ff\	paſ-
.	.	.	.	4g\	-ga	4b\	ſto-	4ee\	-to-
=3-	=3-	=3-	=3-	=3-	=3-	=3-	=3-	=3-	=3-
2D/	QVal	2A/	QVal	4f\	paſ-	1a	-rel-	2dd\	-rel-
.	.	.	.	4f\	-to-	.	.	.	.
!	!	!	!	!LO:SIC:v:t=custos A	!	!	!	!	!
4.A\	va-	4.c/	va-	2e\	-rel-	.	.	2ee\	-la
8B\	.	8d\	.	.	.	.	.	.	.
!	!	!	!	!LO:PB:g=original	!	!	!	!	!
4c#X\	.	4e\	.	2A/	-la	4a\	-la	2r	.
*	*	*	*	*	*Xij	*	*ij	*	*
4c#\	-ga	4e\	-ga	.	.	4e/	Qval	.	.
4d\	paſ-	4f\	paſ-	2r	.	2.a\	va-	4r	.
*	*	*	*	*	*	*	*	*	*ij
4d\	-to-	4f\	-to-	.	.	.	.	4a/	QVal
=4-	=4-	=4-	=4-	=4-	=4-	=4-	=4-	=4-	=4-
2A\	-rel-	1e	-rel-	4r	.	.	.	4.cc\	va-
.	.	.	.	4A/	Qual	4a\	-ga	.	.
.	.	.	.	.	.	.	.	8dd\	.
!	!	!	!	!LO:TX:a:i:t=Seconda parte.	!	!	!	!	!
2E/	-la	.	.	4B/	va-	4g#X\	pa-	4ee\	.
!	!	!	!	!	!	!LO:SIC:v:t=custos a	!	!	!
.	.	.	.	4B/	-ga	4g#\	-ſto-	4ee\	-ga
!	!	!	!	!	!	!LO:LB:g=original	!	!	!
2r	.	2A/	-la	4cny/	paſ-	2a\	-rel-	4ff\	paſ-
!	!	!	!	!	!	!	!	!LO:SIC:v:t=custos dd	!
.	.	.	.	4e\	-to-	.	.	4ee\	-to-
!	!	!	!	!	!	!	!	!LO:LB:g=original	!
2D/	che	2d\	Che	2f\	-rel-	2a\	-la	2dd\	-rel-
*	*	*	*	*	*	*	*Xij	*	*
=5-	=5-	=5-	=5-	=5-	=5-	=5-	=5-	=5-	=5-
2.A\	preſ-	2.c/	preſ-	4e\	-la	4r	.	1ee	-la
*	*	*	*	*	*	*	*	*	*Xij
.	.	.	.	4A/	Che	4a\	che	.	.
.	.	.	.	2.e\	preſ-	4a\	preſ-	.	.
!LO:SIC:v:t=custos A	!	!	!	!	!	!	!	!	!
4A\	-ſo_a	4c/	-ſo_a	.	.	4a\	-ſo_a	.	.
!LO:LB:g=original	!	!	!	!	!	!	!	!	!
4A\	le	4A/	le	.	.	4cc\	le	2r	.
!	!	!LO:SIC:v:t=custos c	!	!	!	!	!	!	!
4G#X\	chia-	4B/	chia-	4e\	-ſo_a	4b\	chia-	.	.
!	!	!LO:LB:g=original	!	!	!	!	!	!	!
2A\	-r'on-	4c/	-r'on-	4e\	le	2a\	-r'on-	4r	.
.	.	4A/	-de	4c/	chia-	.	.	4a/	che
=6-	=6-	=6-	=6-	=6-	=6-	=6-	=6-	=6-	=6-
2E/	-de	4r	.	2B/	-r'on-	4g#X\	-de	2.ee\	preſ-
*	*	*	*ij	*	*	*	*ij	*	*
.	.	4e\	Che	.	.	4b\	che	.	.
2r	.	2.a\	preſ-	2A/	-de	2.cc\	preſ-	.	.
.	.	.	.	.	.	.	.	4ee\	-ſo_a
1r	.	.	.	1r	.	.	.	4ee\	le
.	.	4a\	-ſo	.	.	4cc\	-ſo_a	4ff\	chia-
.	.	4a\	ale	.	.	4cc\	le	4.ee\	-r'on-
.	.	4g#X\	chia-	.	.	2b\	chia-	.	.
.	.	.	.	.	.	.	.	8dd\	.
=7-	=7-	=7-	=7-	=7-	=7-	=7-	=7-	=7-	=7-
2r	.	2a\	-r'on-	2r	.	.	.	2cc\	.
.	.	.	.	.	.	2a\	-r'on-	.	.
2E/	Gir-	2e\	-de	4r	.	.	.	2b/	de
*	*	*	*Xij	*	*	*	*	*	*
.	.	.	.	4e\	Gir-	4g#X\	.	.	.
8F/	-lan-	1r	.	8A/	-lan-	2a\	-de	2r	.
*	*	*	*	*	*	*	*Xij	*	*
8Gny\	.	.	.	8B/	.	.	.	.	.
8A\	.	.	.	8c\	.	.	.	.	.
!	!	!	!	!LO:SIC:v:t=custos e	!	!	!	!	!
8B\	.	.	.	8d\	.	.	.	.	.
!	!	!	!	!LO:LB:g=original	!	!	!	!	!
4cny\	.	.	.	4e\	.	4r	.	4r	.
4A\	-de	.	.	4c/	-de	4e/	Gir-	4ee\	Gir-
=8-	=8-	=8-	=8-	=8-	=8-	=8-	=8-	=8-	=8-
2F/	teſ-	2r	.	2c/	teſ-	8f\	-lan-	8a/	-lan-
.	.	.	.	.	.	8gny\	.	8b/	.
.	.	.	.	.	.	8a\	.	8cc\	.
!	!	!	!	!	!	!LO:SIC:v:t=custos cc	!	!	!
.	.	.	.	.	.	8b\	.	8dd\	.
!	!	!	!	!	!	!LO:LB:g=original	!	!	!
2C/	-ſa	4r	.	2c/	-ſa	2cc\	.	8ee\	.
.	.	.	.	.	.	.	.	8ff\	.
.	.	4c/	Gir-	.	.	.	.	8gg\	.
.	.	.	.	.	.	.	.	8ee\	.
1r	.	8d\	-lan-	1r	.	4b-X\	de	2ff\	.
.	.	8e\	.	.	.	.	.	.	.
.	.	8f\	.	.	.	4.a\	teſ-	.	.
.	.	8gny\	.	.	.	.	.	.	.
!	!	!	!	!	!	!	!	!LO:SIC:v:t=custos dd	!
.	.	4a\	.	.	.	.	.	2ee\	-de
.	.	.	.	.	.	8b-\	.	.	.
.	.	4e\	-de	.	.	4.cc\	.	.	.
!	!	!	!	!	!	!	!	!LO:LB:g=original	!
=9-	=9-	=9-	=9-	=9-	=9-	=9-	=9-	=9-	=9-
0r	.	2g\	teſ-	4r	.	.	.	2dd\	teſ-
.	.	.	.	.	.	8bny\	.	.	.
*	*	*	*	*	*ij	*	*	*	*
.	.	.	.	4G/	Gir-	4b\	.	.	.
.	.	4c/	-ſa	8A/	-lan-	2cc\	-ſa	4cc\	-ſa
.	.	.	.	8B/	.	.	.	.	.
*	*	*	*ij	*	*	*	*	*	*ij
!	!	!LO:SIC:v:t=custos g	!	!	!	!	!	!	!
.	.	4e\	Gir-	8c\	.	.	.	4cc\	Gir-
.	.	.	.	8d\	.	.	.	.	.
!	!	!LO:LB:g=original	!	!	!	!	!	!	!
.	.	4g\	-lan-	4e\	.	2r	.	4b/	-lan-
.	.	4a\	-de	4c#X\	de	.	.	4ee\	-de
.	.	2f\	teſ-	2d\	teſ-	2a\	a	2dd\	teſ-
=10-	=10-	=10-	=10-	=10-	=10-	=10-	=10-	=10-	=10-
2r	.	2e\	-ſa_a	4A/	-ſa_a	2a\	cre-	2cc#X\	-ſa_a
*	*	*	*Xij	*	*Xij	*	*	*	*Xij
.	.	.	.	2A/	cre-	.	.	.	.
2D/	a	4.d\	cre-	.	.	2f#X\	-ſpa	2.dd\	cre-
.	.	.	.	4d\	-ſpa	.	.	.	.
.	.	8c/	.	.	.	.	.	.	.
4.G\	cre-	8B/	.	8d\	chio-	4.g\	chio-	.	.
.	.	8A/	.	8cny\	.	.	.	.	.
.	.	2G/	.	8B/	.	.	.	4gg\	-ſpa
!LO:SIC:v:t=custos E	!	!	!	!	!	!	!	!	!
8F\	.	.	.	8A/	.	8a\	.	.	.
!LO:LB:g=original	!	!	!	!	!	!	!	!	!
4E/	.	.	.	4G/	.	4b\	.	8gg\	chio-
.	.	.	.	.	.	.	.	8ff\	.
4C/	-ſpa	4g\	-ſpa	4G/	-ma	4cc\	-ma	8ee\	.
.	.	.	.	.	.	.	.	8dd\	.
=11-	=11-	=11-	=11-	=11-	=11-	=11-	=11-	=11-	=11-
4F/	chio-	4c/	chio-	2A/	d'o-	4a\	d'o-	4ccny\	.
4D/	-ma	4f\	-ma	.	.	8g\	.	2dd\	-ma
.	.	.	.	.	.	8fny\	.	.	.
4.E/	d'o-	2.e\	d'o-	2G/	-ro	2g\	.	.	.
.	.	.	.	.	.	.	.	2cc\	d'o-
8F/	.	.	.	.	.	.	.	.	.
!	!	!	!	!LO:SIC:v:t=custos e	!	!	!	!	!
1G	.	.	.	1r	.	0g	-ro	.	.
.	.	8d\	.	.	.	.	.	8b/	.
.	.	8c\	.	.	.	.	.	8a/	.
.	.	2d\	.	.	.	.	.	2b/	.
!	!	!	!	!LO:LB:g=original	!	!	!	!	!
=12-	=12-	=12-	=12-	=12-	=12-	=12-	=12-	=12-	=12-
1C	-ro	0c	-ro	2r	.	.	.	2cc\	-ro
.	.	.	.	2e\	e	.	.	4r	.
!	!	!	!	!	!	!	!	!LO:SIC:v:t=custos gg	!
.	.	.	.	.	.	.	.	4ee\	e
!	!	!	!	!	!	!LO:SIC:v:t=custos g	!	!LO:LB:g=original	!
1r	.	.	.	4.e\	qual	2g\	e	4.gg\	qual
.	.	.	.	8e\	Di-	.	.	8gg\	Di-
!	!	!	!	!	!	!LO:LB:g=original	!	!	!
.	.	.	.	4e\	-a-	4.g\	qual	4gg\	-a-
.	.	.	.	4e\	-na	.	.	4gg\	-na
.	.	.	.	.	.	8g\	Di-	.	.
=13-	=13-	=13-	=13-	=13-	=13-	=13-	=13-	=13-	=13-
2r	.	2r	.	2d\	bel-	4a\	-a-	2ff\	bel-
.	.	.	.	.	.	4b\	-na	.	.
2A\	e	4r	.	2c/	-la	2cc\	bel-	4ee\	-la
*	*	*	*	*	*	*	*	*	*ij
.	.	4A/	e	.	.	.	.	4ee\	e
4.A\	qual	4.c/	qual	4r	.	1a	-la	4.cc\	qual
*	*	*	*	*	*ij	*	*	*	*
.	.	.	.	4c/	e	.	.	.	.
!	!	!LO:SIC:v:t=custos e	!	!	!	!	!	!	!
8A\	Di-	8d\	Di-	.	.	.	.	8cc\	Di-
!	!	!LO:LB:g=original	!	!	!	!	!	!	!
4A\	-a-	4e\	-a-	4.c/	qual	.	.	4cc\	-a-
4A\	-na	4f\	-na	.	.	.	.	4cc\	-na
.	.	.	.	8c/	Di-	.	.	.	.
=14-	=14-	=14-	=14-	=14-	=14-	=14-	=14-	=14-	=14-
2G\	bel-	2g\	bel-	4d\	-a-	1r	.	2b-X/	bel-
.	.	.	.	4e\	-na	.	.	.	.
2F/	-la	2c/	-la	2f\	bel-	.	.	2a/	-la
*	*	*	*	*	*	*	*	*	*Xij
2C/	Men-	2c/	Men-	4e\	-la	2g\	Men-	2ee\	Men-
*	*	*	*	*	*Xij	*	*	*	*
.	.	.	.	4e\	Men-	.	.	.	.
4C/	-tre	4c/	-tre	4e\	-tre	4g\	-tre	4ee\	-tre
!LO:SIC:v:t=custos F	!	!	!	!	!	!	!	!	!
4C/	tra	4c/	tra	4e\	tra	4g\	tra	4ee\	tra
!LO:LB:g=original	!	!	!	!	!	!	!	!	!
=15-	=15-	=15-	=15-	=15-	=15-	=15-	=15-	=15-	=15-
2F/	ver-	2A/	ver-	2c/	ver-	2a\	ver-	2ff\	ver-
2G\	-di	2d\	-di	2B/	-di	2g\	-di	2dd\	-di
1D	ſron-	4d\	ſron-	2A/	ſron-	2f#X\	fron-	2dd\	ſron-
.	.	8c/	.	.	.	.	.	.	.
.	.	8B/	.	.	.	.	.	.	.
!	!	!	!	!LO:SIC:v:t=custos e	!	!	!	!	!
.	.	4A/	.	2d\	-de	2f#\	-de	2dd\	-de
.	.	4B/	.	.	.	.	.	.	.
!	!	!	!	!LO:LB:g=original	!	!	!	!	!
=16-	=16-	=16-	=16-	=16-	=16-	=16-	=16-	=16-	=16-
2C/	-de	2.c/	.	4.e\	Te-	1r	.	4.gg\	Te-
!	!	!	!	!	!	!	!	!LO:SIC:v:t=custos ee	!
.	.	.	.	8d\	-ner'	.	.	8ff\	-ner'
!	!	!	!	!	!	!	!	!LO:LB:g=original	!
2r	.	.	.	4c/	an-	.	.	4ee\	an-
.	.	4G/	-de	4B/	-cor	.	.	4dd\	-cor
4.C/	Te-	4.g\	Te-	2c/	fier	4.e/	Te-	2cc\	fier
8D/	-ner'	8f\	-ner'	.	.	8d/	-ner'	.	.
4E/	an-	4e\	an-	2r	.	4c/	an-	2r	.
!	!	!LO:SIC:v:t=custos e	!	!	!	!	!	!	!
4D/	-cor	4f\	-cor	.	.	4B/	-cor	.	.
!	!	!LO:LB:g=original	!	!	!	!	!	!	!
=17-	=17-	=17-	=17-	=17-	=17-	=17-	=17-	=17-	=17-
*	*	*	*	*	*ij	*	*	*	*ij
2C/	fier	2e\	fier	4.c/	Te-	2c/	fier	4.ee\	Te-
.	.	.	.	8d\	-ner'	.	.	8dd\	-ner'
!	!	!	!	!	!	!LO:SIC:v:t=custos a	!	!	!
2r	.	2r	.	4e\	an-	2r	.	4cc\	an-
.	.	.	.	4d\	-cor	.	.	4bny\	-cor
!	!	!	!	!	!	!LO:LB:g=original	!	!	!
2r	.	2r	.	2c/	fier	2r	.	2cc\	fier
*	*	*	*	*	*Xij	*	*	*	*Xij
2.F/	que-	2.c/	que-	2.A/	que-	2.a\	que-	2.ff\	que-
=18-	=18-	=18-	=18-	=18-	=18-	=18-	=18-	=18-	=18-
.	.	.	.	.	.	.	.	.	.
4D/	ſta	4d\	ſta	4d\	-ſta	4a\	-ſta	4ff\	-ſta
4A\	cer-	4e\	cer-	4c/	cer-	4cc\	cer-	4ee\	cer-
4A\	-uae	4e\	-uae	4c/	-uae	4a\	-uae	4ee\	-uae
2E/	quel-	1e	quel-	1B	quel-	4.g#X\	quel-	1ee	quel-
.	.	.	.	.	.	8f#X\	.	.	.
2E/	-la	.	.	.	.	2g#X\	.	.	.
=19-	=19-	=19-	=19-	=19-	=19-	=19-	=19-	=19-	=19-
2r	.	0e	-la	1A	-la	1a	-la	1cc#X	-la
2.A\	An-	.	.	.	.	.	.	.	.
.	.	.	.	2.a\	An-	1r	.	2r	.
!LO:SIC:v:t=custos c	!	!	!	!	!	!	!	!	!
4B\	-ge-	.	.	.	.	.	.	.	.
!LO:LB:g=original	!	!	!	!	!	!	!	!	!
2c#X\	-let-	.	.	.	.	.	.	2.a/	An-
.	.	.	.	4g\	-ge-	.	.	.	.
=20-	=20-	=20-	=20-	=20-	=20-	=20-	=20-	=20-	=20-
4d\	-ta	2r	.	2f\	-let-	2.a\	An-	.	.
4d\	m'ap-	.	.	.	.	.	.	4b/	-ge-
2A\	-pa-	2.A/	An-	4e\	-ta	.	.	2cc#X\	-let-
!	!	!	!	!LO:SIC:v:t=custos d	!	!	!	!	!
.	.	.	.	4e\	m'ap-	4gny\	-ge-	.	.
!	!	!	!	!LO:LB:g=original	!	!	!	!	!
2D/	-rue	.	.	2d\	-pa-	2fny\	-let-	4dd\	-ta
.	.	4B/	-ge-	.	.	.	.	4dd\	m'ap-
!	!	!	!	!	!	!	!	!LO:SIC:v:t=custos a	!
2r	.	2c#X/	-let-	2A/	-rue	4e/	-ta	2ee\	-par-
.	.	.	.	.	.	4a\	m'ap-	.	.
!	!	!	!	!	!	!	!	!LO:LB:g=original	!
=21-	=21-	=21-	=21-	=21-	=21-	=21-	=21-	=21-	=21-
0r	.	4d\	-ta	4r	.	4.f\	-par-	2a/	-ue_on-
.	.	4d\	m'ap-	2f\	on-	.	.	.	.
.	.	.	.	.	.	8g\	.	.	.
.	.	4A/	-par-	.	.	4a\	.	4.ccny\	-d'io
.	.	4A/	-ue_on-	4e\	-d'io	4a\	-ue_on-	.	.
.	.	.	.	.	.	.	.	8dd\	mi
.	.	4.cny/	-d'io	4A/	mi	4a\	-d'io	1ee	mo-
!	!	!	!	!	!	!LO:SIC:v:t=custos b	!	!	!
.	.	.	.	4.a\	mo-	4cc\	mi	.	.
.	.	8d\	mi	.	.	.	.	.	.
!	!	!LO:SIC:v:t=custos A	!	!	!LO:LB:g=original	!	!	!	!
.	.	2e\	mo-	.	.	2b\	mo-	.	.
.	.	.	.	8g#X\	.	.	.	.	.
.	.	.	.	4g#\	.	.	.	.	.
!	!	!LO:LB:g=original	!	!	!	!	!	!	!
=22-	=22-	=22-	=22-	=22-	=22-	=22-	=22-	=22-	=22-
4r	.	4A/	-ro	4a\	-ro	4a\	-ro	2ee\	-ro
4.A\	Ben-	4.c#X/	Ben-	4.e\	Ben-	4.a\	Ben-	.	.
.	.	.	.	.	.	.	.	2r	.
8A\	-che	8c#/	-che	8e\	-che	8a\	-che	.	.
4A\	la	4c#/	la	4f#X\	la	4a\	la	.	.
4G\	Dea	4d\	Dea	4gny\	Dea	4b\	Dea	0r	.
4E/	ſi-	4e\	ſi-	4g\	ſi-	4cc\	ſi-	.	.
2G\	-mi-	2d\	-mi-	2g\	-mi-	2b\	-mi-	.	.
=23-	=23-	=23-	=23-	=23-	=23-	=23-	=23-	=23-	=23-
2D/	-le	2d\	-le	2f#X\	-le	2a\	-le	.	.
2d\	Mar-	4r	.	2f#\	Mar-	2a\	Mar-	.	.
.	.	4d\	Mar-	.	.	.	.	.	.
2B\	-tir	2d\	-tir	2g\	-tir	2dd\	-tir	1r	.
!	!	!	!	!LO:SIC:v:t=custos g	!	!	!	!	!
2cny\	non	2e\	non	2g\	non	2cc\	non	.	.
!	!	!	!	!LO:LB:g=original	!	!	!	!	!
=24-	=24-	=24-	=24-	=24-	=24-	=24-	=24-	=24-	=24-
1G	dia	1d	dia	2g\	dia	2b\	dia	4dd\	Ne
.	.	.	.	.	.	.	.	4cc\	tal'
.	.	.	.	4g\	Ne	2r	.	2b/	hor
.	.	.	.	4fny\	tal'	.	.	.	.
!LO:SIC:v:t=custos A	!	!	!	!	!	!	!	!	!
1r	.	1r	.	2e\	hor	1r	.	4ee\	l'ar-
.	.	.	.	.	.	.	.	4dd\	-co
.	.	.	.	4a\	l'ar-	.	.	2cc#X\	ſcoc-
.	.	.	.	4g\	-co	.	.	.	.
!LO:LB:g=original	!	!	!	!	!	!	!	!	!
=25-	=25-	=25-	=25-	=25-	=25-	=25-	=25-	=25-	=25-
1r	.	4d\	Ne	2f\	ſcoc-	2r	.	1dd	-chi
.	.	4e\	tal'	.	.	.	.	.	.
.	.	2f\	hor	2d\	-chi	4a\	Ne	.	.
.	.	.	.	.	.	4b\	tal'	.	.
4A\	Ne	4cny/	l'ar-	2r	.	2cc\	hor	1r	.
4B\	tal'	4d\	-co	.	.	.	.	.	.
*	*	*	*	*	*ij	*	*	*	*
!	!	!LO:SIC:v:t=custos d	!	!	!	!	!	!	!
2c\	hor	2e\	ſcoc-	4e\	Ne	4g\	l'ar-	.	.
!	!	!	!	!	!	!LO:SIC:v:t=custos b	!	!	!
.	.	.	.	4f\	tal'	4a\	-co	.	.
!	!	!LO:LB:g=original	!	!	!	!LO:LB:g=original	!	!	!
=26-	=26-	=26-	=26-	=26-	=26-	=26-	=26-	=26-	=26-
4G\	l'ar-	2d\	-chi	2g\	hor	4b-X\	ſcoc-	2r	.
4A\	-co	.	.	.	.	8a\	.	.	.
.	.	.	.	.	.	8g\	.	.	.
2B-X\	ſcoc-	2r	.	4d\	l'ar-	4f\	.	1dd\	Que-
.	.	.	.	4e\	-co	4g\	.	.	.
1A	-chi	1r	.	2f\	ſcoc-	1a	.	.	.
.	.	.	.	2e\	-chi	.	.	2cc#X\	ſta
*	*	*	*	*	*Xij	*	*	*	*
=27-	=27-	=27-	=27-	=27-	=27-	=27-	=27-	=27-	=27-
2r	.	1d	Que-	2r	.	1a	-chi	2dd\	ch'è
1D/	Que-	.	.	2f\	Que-	.	.	4dd\	ſi
!	!	!	!	!	!	!	!	!LO:SIC:v:t=custos ff	!
.	.	.	.	.	.	.	.	4ee\	gen-
!	!	!	!	!	!	!	!	!LO:LB:g=original	!
.	.	1A	-ſta	2d\	-ſta	2r	.	2ff\	-ti-
!	!	!	!	!LO:SIC:v:t=custos f	!	!	!	!	!
2C#X/	ſta	.	.	2e\	ch'è	1a\	Que-	2ee\	-le
!	!	!	!	!LO:LB:g=original	!	!	!	!	!
=28-	=28-	=28-	=28-	=28-	=28-	=28-	=28-	=28-	=28-
2D/	ch'è	2A/	ch'è	2.f\	ſi-	.	.	1r	.
4D/	ſi	2.f\	ſi-	.	.	2d/	-ſta	.	.
4E/	gen-	.	.	8e\	.	.	.	.	.
.	.	.	.	8d\	.	.	.	.	.
1F	-ti-	.	.	4c/	.	2a\	che'	1r	.
.	.	8e\	.	4A/	-gen-	.	.	.	.
.	.	8d\	.	.	.	.	.	.	.
.	.	4c\	.	1a\	-ti-	4a\	ſi	.	.
.	.	4d\	gen-	.	.	4bny\	gen-	.	.
=29-	=29-	=29-	=29-	=29-	=29-	=29-	=29-	=29-	=29-
1E	-le	1e	-ti-	.	.	2cc\	-ti-	1r	.
.	.	.	.	2g#X\	-le	2b\	-le	.	.
1r	.	1e	-le	2r	.	2r	.	4r	.
.	.	.	.	.	.	.	.	4ee\	Di
.	.	.	.	4r	.	4r	.	2gg\	noi
.	.	.	.	4e\	Di	4g\	Di	.	.
=30-	=30-	=30-	=30-	=30-	=30-	=30-	=30-	=30-	=30-
00r	.	1r	.	2gny\	noi	2b\	noi	4r	.
.	.	.	.	.	.	.	.	4dd\	Di
.	.	.	.	4r	.	4r	.	2.ff\	noi
.	.	.	.	4d\	Di	4a\	Di	.	.
.	.	0r	.	2.a\	noi	2.cc\	noi	.	.
.	.	.	.	.	.	.	.	4ee\	ſem-
.	.	.	.	.	.	.	.	4ee\	-pre
!	!	!	!	!	!	!LO:SIC:v:t=custos cc	!	!	!
.	.	.	.	4a\	ſem-	4cc\	ſem-	4ff\	Vit-
!	!	!	!	!	!	!LO:LB:g=original	!	!	!
=31-	=31-	=31-	=31-	=31-	=31-	=31-	=31-	=31-	=31-
.	.	.	.	4a\	-pre	4cc\	-pre	4.ee\	-to-
.	.	.	.	4g#X\	Vit-	2b\	Vit-	.	.
.	.	.	.	.	.	.	.	8dd\	.
.	.	.	.	2a\	-to-	.	.	2ccny\	.
.	.	.	.	.	.	2a\	-to-	.	.
.	.	1r	.	2e\	-ria_ha	.	.	4b/	-ria_ha
.	.	.	.	.	.	4g\	-ria_ha	2cc\	con
.	.	.	.	4f\	con	4a\	con	.	.
.	.	.	.	4c/	be-	4cc\	be-	4ee\	be-
=32-	=32-	=32-	=32-	=32-	=32-	=32-	=32-	=32-	=32-
!	!	!	!	!LO:SIC:v:t=custos d	!	!	!	!	!
2r	.	2G/	Di	2gny\	-gl'oc-	4.b\	-gl'oc-	1dd	-gl'oc-
.	.	.	.	.	.	8a\	.	.	.
!LO:SIC:v:t=custos c	!	!	!	!LO:LB:g=original	!	!	!	!	!
2G\	Di	2.g\	noi	2d\	-chi	2b\	.	.	.
!LO:LB:g=original	!	!	!	!	!	!	!	!	!
2.c\	noi	.	.	1r	.	1cc	-chi	1ee	-chi
.	.	4g\	ſem-	.	.	.	.	.	.
.	.	4g\	-pre	.	.	.	.	.	.
4c\	ſem-	4a\	Vi-	.	.	.	.	.	.
=33-	=33-	=33-	=33-	=33-	=33-	=33-	=33-	=33-	=33-
4c\	-pre	4.g\	-to-	4r	.	2r	.	2r	.
4Bny\	Vit-	.	.	4G/	Di	.	.	.	.
!	!	!LO:SIC:v:t=custos e	!	!	!	!	!	!	!
.	.	8f\	.	.	.	.	.	.	.
!	!	!LO:LB:g=original	!	!	!	!	!	!	!
2c\	-to-	2e\	.	2g\	noi	2cc\	Di	4r	.
!	!	!	!	!	!	!	!	!LO:SIC:v:t=custos gg	!
.	.	.	.	.	.	.	.	4ee\	Di
!	!	!	!	!	!	!	!	!LO:LB:g=original	!
1G	-ria	1d	-ria	4r	.	1b	noi	2gg\	noi
*	*	*	*	*	*ij	*	*	*	*
.	.	.	.	4d\	Di	.	.	.	.
.	.	.	.	4g\	noi	.	.	4r	.
*	*	*	*	*	*Xij	*	*	*	*
.	.	.	.	4G/	Di	.	.	4dd\	Di
=34-	=34-	=34-	=34-	=34-	=34-	=34-	=34-	=34-	=34-
4r	.	4r	.	2d\	noi	2a\	ſem-	2.ff\	noi
4D/	Di	4A/	Di	.	.	.	.	.	.
2.A\	noi	2.c/	noi	2r	.	2.a\	-pre	.	.
.	.	.	.	.	.	.	.	4ee\	ſem-
.	.	.	.	4r	.	.	.	4ee\	-pre
*	*	*	*	*	*	*	*ij	*	*
4A\	ſem-	4c/	ſem-	4A/	Di	4a\	Di	4ff\	Vit-
4A\	-pre	4A/	-pre	2.e\	noi	4cc\	noi	4.ee\	-to-
4G#X\	Vit-	4B/	Vit-	.	.	2b\	ſem-	.	.
.	.	.	.	.	.	.	.	8dd\	.
=35-	=35-	=35-	=35-	=35-	=35-	=35-	=35-	=35-	=35-
2A\	-to-	4c/	-to-	.	.	.	.	2cc\	.
.	.	4A/	.	4e\	ſem-	2a\	-pre	.	.
*	*	*	*	*	*	*	*Xij	*	*
2E/	-ria_ha	2B/	-ria	4e\	-pre	.	.	4b/	-ria
.	.	.	.	4e\	Vit-	4g#X\	Vit-	4ee\	Vit-
2F/	con	4r	.	8A/	-to-	4a\	-to-	4cc\	-to-
.	.	.	.	8B/	.	.	.	.	.
.	.	4A/	ha	8c\	.	4a\	-ria_ha	4ff\	-ria_ha
.	.	.	.	8d\	.	.	.	.	.
2Cny/	be-	4.c/	con	4e\	.	4gny\	con	4ee\	con
.	.	.	.	4g\	-ria_ha	4e/	be-	4ee\	be-
.	.	8B/	be-	.	.	.	.	.	.
=36-	=36-	=36-	=36-	=36-	=36-	=36-	=36-	=36-	=36-
1D	-gl'oc-	1A	-gl'oc-	4f\	con	1a	-gl'oc-	1dd	-gl'oc-
.	.	.	.	4d\	be-	.	.	.	.
.	.	.	.	2f\	-gl'oc-	.	.	.	.
1AAl	-chi.	1Al	-chi.	1el	-chi.	1al	-chi	1cc#Xl	-chi.
==	==	==	==	==	==	==	==	==	==
*-	*-	*-	*-	*-	*-	*-	*-	*-	*-
!!!system-decoration: [(*)]
!!!RDF**kern: l = terminal long
!!!ENC: Marta Opryszak
!!!END: 2022-07-08
!!!ENC: Andrzej Kubiczek
!!!END: 2022-07-31
